X: 99
T: Piano Sonata no. 31 in A\b major, Scherzo
C: Ludwig van Beethoven
%%abc-version 2.0
%%abcx-abcm2ps-target-version 5.9.1 (29 Sep 2008)
%%abc-creator hum2abc beta
%%abcx-conversion-date 2021/01/11 11:42:08
%%abc-edited-by Craig Stuart Sapp
%%abcx-initial-encoding-date 2005/08/27/
%%gracespace 0 6 6
%%humdrum-veritas 2295425939
%%humdrum-veritas-data 960652109
%%linebreak <none>
%%barnumbers 0
L: 1/4
M: 2/4
Q: "Scherzo: Allegro molto" 1/2=120
%%staves {1 2}
V: 1 clef=treble
V: 2 clef=bass
K: Ab
[V:1] [Ac][=EB] | 
[V:2] [F,,F,][G,,G,] | 
[V:1] [FA][D=EG] | 
[V:2] [A,,A,][B,,B,] | 
[V:1] .[A,=DF].[A,DF] | 
[V:2] .[=B,,=B,].[B,,B,] | 
[V:1] [G,2=E2] | 
[V:2] [C,2C2] | 
[V:1] [c=eg][Gce] | 
[V:2] [C,,C,][=E,,=E,] | 
[V:1] .[=EGc].[EGc] | 
[V:2] [G,,G,][C,C] | 
[V:1] .[=EGc].[G=B=d] | 
[V:2] .[G,,G,].[G,,,G,,] | 
[V:1] [G2c2=e2] :|]  
[V:2] [C,,2C,2] :|]  
[V:1] gg & =e=d ]|:  
[V:2] [C,,C,][=B,,,=B,,] ]|:  
[V:1] ga & =e2- | 
[V:2] [C,,2C,2]- | 
[V:1] .a.a & ef- | 
[V:2] [C,,C,][D,,D,]- | 
[V:1] a-b & f[fa]- | 
[V:2] [D,,D,][=D,,=D,]- | 
[V:1] .b.b & [fa][e-g] | 
[V:2] [D,,D,][E,,E,]- | 
[V:1] [gb][ac'] & e2 | 
[V:2] [E,,E,][A,,,A,,] | 
[V:1] .[bd'].[gb] & fd | 
[V:2] .[D,,D,].[E,,E,] | 
[V:1] a2 & c2 | 
[V:2] [A,,2A,2] | 
[V:1] AA | 
[V:2] z[A,C] | 
[V:1] G/F/E | 
[V:2] [B,D]z | 
[V:1] [Ac][Ac] | 
[V:2] z[A,C] | 
[V:1] [G/B/][F/A/][EG] | 
[V:2] [B,D]z | 
[V:1] [ce][ce] | 
[V:2] z[A,,,A,,] | 
[V:1] [Bd][Ac] | 
[V:2] [B,,,B,,][C,,C,] | 
[V:1] [GB][Ac] | 
[V:2] [D,,D,][=D,,=D,] | 
[V:1] [GB][Gc] | 
[V:2] [E,,E,][=E,,=E,] | 
[V:1] FF | 
[V:2] [F,,F,][F,A,] | 
[V:1] =E/=D/C | 
[V:2] [G,B,]z | 
[V:1] [FA][FA] | 
[V:2] z[F,A,] | 
[V:1] [=E/G/][=D/F/][CE] | 
[V:2] [G,B,]z | 
[V:1] [Ac][Ac] | 
[V:2] z[F,,F,] | 
[V:1] [GB][FA] | 
[V:2] [G,,G,][A,,A,] | 
[V:1] [=EG][FA] | 
[V:2] [B,,B,][=B,,=B,] | 
[V:1] [=E2G2] | 
[V:2] [C,2C2] | 
[V:1] cc & F2 | 
[V:2] A,2 & A,,2 | 
[V:1] =dg | 
[V:2] B,,B, & G,,2 | 
[V:1] .f.=e | 
[V:2] A,G, & C,2 | 
[V:1] [Af][dg] | 
[V:2] F,F, & D,B,, | 
[V:1] z2 | 
[V:2] z2 | 
[V:1] z2 | 
[V:2] z2 | 
[V:1] .[cfa].[cgc'] |[1 
[V:2] .[C,F,].[C,=E,] | 
[V:1] .f[=eg]- | 
[V:2] .[F,,F,][C,,C,]- | 
[V:1] [eg][=dg] :|][2 
[V:2] [C,,C,][=B,,,=B,,] :|]  
[V:1] .ff'- | 
[V:2] [F,,F,]z | 
[V:1]  [K:Db] f'/c'/e'/d'/ | 
[V:2]  [K:Db] D,,F, | 
[V:1] a/c'/b/=g/ | 
[V:2] zA, | 
[V:1] b/f/a/g/ | 
[V:2] zF, | 
[V:1] e/g/f/d/ | 
[V:2] zA, | 
[V:1] g/=d/f/e/ | 
[V:2] zC | 
[V:1] =B/d/c/A/ | 
[V:2] z[K:clef=treble]e | 
[V:1] B/G/B/A/ | 
[V:2] zc' | 
[V:1] Fg' | 
[V:2] d'z[K:clef=bass] | 
[V:1] f'/c'/e'/d'/ | 
[V:2] D,,F, | 
[V:1] a/c'/b/=g/ | 
[V:2] zA, | 
[V:1] b/f/a/g/ | 
[V:2] zF, | 
[V:1] e/g/f/d/ | 
[V:2] zA, | 
[V:1] f/c/e/d/ | 
[V:2] z[K:clef=treble]F | 
[V:1] A/d/_c/A/ | 
[V:2] zf | 
[V:1] _c/A/c/=A/ | 
[V:2] zf' | 
[V:1] Bb'- | 
[V:2] g'z[K:clef=bass] | 
[V:1] b'/f'/a'/g'/ | 
[V:2] G,,B, | 
[V:1] d'/f'/e'/=c'/ | 
[V:2] zD | 
[V:1] e'/b/d'/_c'/ | 
[V:2] zB, | 
[V:1] a/_c'/b/g/ | 
[V:2] zD | 
[V:1] _c'/=g/b/a/ | 
[V:2] z[K:clef=treble]F | 
[V:1] =e/g/f/d/ | 
[V:2] za | 
[V:1] e/_c/e/d/ | 
[V:2] z.f' | 
[V:1] Bb'- | 
[V:2] g'z[K:clef=bass] | 
[V:1] b'/f'/a'/g'/ | 
[V:2] G,,B, | 
[V:1] d'/f'/e'/=c'/ | 
[V:2] zD | 
[V:1] e'/b/d'/_c'/ | 
[V:2] zB, | 
[V:1] a/_c'/b/g/ | 
[V:2] zD | 
[V:1] b/=g/b/a/ | 
[V:2] z[F,=D] | 
[V:1] f/a/g/e/ | 
[V:2] z[K:clef=treble]b | 
[V:1] =d/A/_c/B/ | 
[V:2] z=d' | 
[V:1] Gg'- | 
[V:2] e'z[K:clef=bass] | 
[V:1] g'/=d'/f'/e'/ | 
[V:2] E,,G, | 
[V:1] .g[ge'g'] | 
[V:2] z[C,,A,,C,] | 
[V:1] .f[fd'f'-] | 
[V:2] z[D,,A,,D,] | 
[V:1] f'/=c'/e'/d'/ | 
[V:2] D,,F, | 
[V:1] a/c'/b/=g/ | 
[V:2] zA, | 
[V:1] b/f/a/g/ | 
[V:2] zF, | 
[V:1] e/g/f/d/ | 
[V:2] zA, | 
[V:1] g/=d/f/e/ | 
[V:2] zC | 
[V:1] =B/d/c/A/ | 
[V:2] z[K:clef=treble]e | 
[V:1] B/G/B/A/ | 
[V:2] zc' | 
[V:1] Ff- | 
[V:2] d'z[K:clef=bass] | 
[V:1] f/c/e/d/ | 
[V:2] D,,F, | 
[V:1] A/c/B/=G/ | 
[V:2] zA, | 
[V:1] B/F/A/G/ | 
[V:2] zF, | 
[V:1] E/G/F/D/ | 
[V:2] zA, | 
[V:1] G/=D/F/E/ | 
[V:2] zC | 
[V:1] =B,/D/C/A,/[K:clef=bass] | 
[V:2] z[K:clef=treble]e | 
[V:1] B,/G,/B,/A,/ | 
[V:2] zc' | 
[V:1] E,/G,/F,/D,/ | 
[V:2] zd'[K:clef=bass] | 
[V:1] z2[K:clef=treble] | 
[V:2] F,/C,/E,/D,/ | 
[V:1] F/C/E/D/ | 
[V:2] z2[K:clef=treble] | 
[V:1] z2 | 
[V:2] F/C/E/D/ | 
[V:1] f/c/e/!fermata!d/ | 
[V:2] !fermata!z2[K:clef=bass] | 
[V:1]  [K:Ab] [Ac][=EB] | 
[V:2]  [K:Ab] [F,,F,][G,,G,] | 
[V:1] [FA][D=EG] | 
[V:2] [A,,A,][B,,B,] | 
[V:1] .[A,=DF].[A,DF] | 
[V:2] .[=B,,=B,].[B,,B,] | 
[V:1] [G,2=E2] | 
[V:2] [C,2C2] | 
[V:1] [c=eg][Gce] | 
[V:2] [C,,C,][=E,,=E,] | 
[V:1] .[=EGc].[EGc] | 
[V:2] [G,,G,][C,C] | 
[V:1] .[=EGc].[G=B=d] | 
[V:2] .[G,,G,].[G,,,G,,] | 
[V:1] [G2c2=e2] | 
[V:2] [C,,2C,2] | 
[V:1] [Ac][=EB] | 
[V:2] [F,,F,][G,,G,] | 
[V:1] [FA][D=EG] | 
[V:2] [A,,A,][B,,B,] | 
[V:1] .[A,=DF].[A,DF] | 
[V:2] .[=B,,=B,].[B,,B,] | 
[V:1] [G,2=E2] | 
[V:2] [C,2C2] | 
[V:1] [c=eg][Gce] | 
[V:2] [C,,C,][=E,,=E,] | 
[V:1] .[=EGc].[EGc] | 
[V:2] [G,,G,][C,C] | 
[V:1] .[=EGc].[G=B=d] | 
[V:2] .[G,,G,].[G,,,G,,] | 
[V:1] [G2c2=e2] | 
[V:2] [C,,2C,2] | 
[V:1] gg & =e=d ]|:  
[V:2] [C,,C,][=B,,,=B,,] ]|:  
[V:1] ga & =e2- | 
[V:2] [C,,2C,2]- | 
[V:1] .a.a & ef- | 
[V:2] [C,,C,][D,,D,]- | 
[V:1] ab & f[fa-] | 
[V:2] [D,,D,][=D,,=D,]- | 
[V:1] bb & [fa][e-g] | 
[V:2] [D,,D,][E,,E,]- | 
[V:1] [gb][ac'] & e2 | 
[V:2] [E,,E,][A,,,A,,] | 
[V:1] .[bd'].[gb] & fd | 
[V:2] .[D,,D,].[E,,E,] | 
[V:1] [c2a2] | 
[V:2] [A,,2A,2] | 
[V:1] AA | 
[V:2] z[A,C] | 
[V:1] G/F/E | 
[V:2] [B,D]z | 
[V:1] [Ac][Ac] | 
[V:2] z[A,C] | 
[V:1] [G/B/][F/A/][EG] | 
[V:2] [B,D]z | 
[V:1] [ce][ce] | 
[V:2] z[A,,,A,,] | 
[V:1] [Bd][Ac] | 
[V:2] [B,,,B,,][C,,C,] | 
[V:1] [GB][Ac] | 
[V:2] [D,,D,][=D,,=D,] | 
[V:1] [GB][Gc] | 
[V:2] [E,,E,][=E,,=E,] | 
[V:1] FF | 
[V:2] [F,,F,][F,A,] | 
[V:1] =E/=D/C | 
[V:2] [G,B,]z | 
[V:1] [FA][FA] | 
[V:2] z[F,A,] | 
[V:1] [=E/G/][=D/F/][CE] | 
[V:2] [G,B,]z | 
[V:1] [Ac].[Ac] | 
[V:2] z[F,,F,] | 
[V:1] [GB][FA] | 
[V:2] [G,,G,][A,,A,] | 
[V:1] [=EG][FA] | 
[V:2] [B,,B,][=B,,=B,] | 
[V:1] [=E2G2] | 
[V:2] [C,2C2] | 
[V:1] cc & F2 | 
[V:2] A,2 & A,,2 | 
[V:1] =dg | 
[V:2] B,,B, & G,,2 | 
[V:1] .f.=e | 
[V:2] A,G, & C,2 | 
[V:1] [Af][dg] | 
[V:2] F,-F, & D,B,, | 
[V:1] z2 | 
[V:2] z2 | 
[V:1] z2 | 
[V:2] z2 | 
[V:1] .[cfa].[cgc'] |[1 
[V:2] .[C,F,].[C,=E,] | 
[V:1] f[=eg]- | 
[V:2] [F,,F,][C,,C,]- | 
[V:1] [eg][=dg] :|][2 
[V:2] [C,,C,][=B,,,=B,,] :|]  
[V:1] [Acf]z | 
[V:2] [F,,F,]z | 
[V:1] [A2c2f2] | 
[V:2] [F,,2C,2F,2] | 
[V:1] z2 | 
[V:2] z2 | 
[V:1] [G2c2g2] | 
[V:2] [=E,,2C,2=E,2] | 
[V:1] z2 | 
[V:2] z2 | 
[V:1] [A2c2f2a2] | 
[V:2] [F,,2C,2F,2] | 
[V:1] z2 | 
[V:2] z2 | 
[V:1] [d2f2b2d'2] | 
[V:2] [B,,,2B,,2] | 
[V:1] z2 | 
[V:2] z2 | 
[V:1] [c2f2a2c'2] | 
[V:2] [C,,2C,2] | 
[V:1] z2 | 
[V:2] z2 | 
[V:1] [c2=e2g2c'2] | 
[V:2] [C,,2C,2] | 
[V:1] [c2f2=a2c'2]- | 
[V:2] F,,,/C,,/=A,,,/F,,/ | 
[V:1] [c2f2a2c'2]- | 
[V:2] C,,/=A,,/F,,/C,/ | 
[V:1] [c2f2a2c'2]- | 
[V:2] =A,,/F,/C,/=A,/ | 
[V:1] [c2f2a2c'2] |]  
[V:2] F,/C/=A,/!fermata!F/ |]  


